svg/fluentui-system-icons/ic_fluent_document_key_20_regular.svg

<svg width="20" height="20" viewBox="0 0 20 20" fill="none" xmlns="http://www.w3.org/2000/svg">
<path d="M6 2C4.89543 2 4 2.89543 4 4V16C4 17.1046 4.89543 18 6 18H9V17H6C5.44772 17 5 16.5523 5 16V4C5 3.44772 5.44772 3 6 3H10V6.5C10 7.32843 10.6716 8 11.5 8H15V9.13464C15.3159 9.05322 15.6413 9.00887 15.9744 9.00033L15.9872 9H16V7.41421C16 7.01639 15.842 6.63486 15.5607 6.35355L11.6464 2.43934C11.3651 2.15804 10.9836 2 10.5858 2H6ZM14.7929 7H11.5C11.2239 7 11 6.77614 11 6.5V3.20711L14.7929 7ZM10.1484 18.8516C10.2474 18.9505 10.3646 19 10.5 19H12.5C12.6146 18.9948 12.7057 18.9714 12.7734 18.9297C12.8411 18.888 12.8906 18.8307 12.9219 18.7578C12.9531 18.6849 12.974 18.6068 12.9844 18.5234C12.9948 18.4401 13 18.3542 13 18.2656V18C13.2396 17.9948 13.4271 17.987 13.5625 17.9766C13.6979 17.9661 13.7995 17.9271 13.8672 17.8594C13.9349 17.7917 13.974 17.6927 13.9844 17.5625C13.9948 17.4323 14 17.2448 14 17C14.5 17 14.634 17.0208 14.7656 16.9297C14.8333 16.8828 14.8854 16.8255 14.9219 16.7578C14.9583 16.6901 14.9818 16.612 14.9922 16.5234C15.0192 16.2943 15 16.0588 15 15.8281C15.1719 15.8906 15.3464 15.9349 15.5234 15.9609C15.7005 15.987 15.8802 16 16.0625 16C16.4792 15.9948 16.862 15.9141 17.2109 15.7578C17.5599 15.6016 17.8698 15.3828 18.1406 15.1016C18.4115 14.8203 18.6224 14.5 18.7734 14.1406C18.9245 13.7812 19 13.401 19 13C19 12.5833 18.9219 12.1927 18.7656 11.8281C18.6094 11.4635 18.3958 11.1458 18.125 10.875C17.8542 10.6042 17.5365 10.3906 17.1719 10.2344C16.8073 10.0781 16.4167 10 16 10C15.5938 10.0104 15.2109 10.0885 14.8516 10.2344C14.4922 10.3802 14.1745 10.5885 13.8984 10.8594C13.6224 11.1302 13.4036 11.4427 13.2422 11.7969C13.0807 12.151 13 12.5312 13 12.9375C13 13.1823 13.0286 13.4401 13.0859 13.7109L10.1484 16.6484C10.0495 16.7474 10 16.8646 10 17V18.5C10 18.6354 10.0495 18.7526 10.1484 18.8516ZM17.5 12.25C17.5 12.6623 17.1623 13 16.75 13C16.3377 13 16 12.6623 16 12.25C16 11.8377 16.3377 11.5 16.75 11.5C17.1623 11.5 17.5 11.8377 17.5 12.25Z" fill="#212121"/>
</svg>

<svg xmlns="http://www.w3.org/2000/svg" width="20" height="20"><path d="M6 2a2 2 0 0 0-2 2v12a2 2 0 0 0 2 2h3v-1H6a1 1 0 0 1-1-1V4a1 1 0 0 1 1-1h4v3.5A1.5 1.5 0 0 0 11.5 8H15v1.135A4.34 4.34 0 0 1 15.974 9H16V7.414a1.5 1.5 0 0 0-.44-1.06l-3.914-3.915A1.5 1.5 0 0 0 10.586 2H6Zm8.793 5H11.5a.5.5 0 0 1-.5-.5V3.207L14.793 7Zm-4.645 11.852A.48.48 0 0 0 10.5 19h2a.569.569 0 0 0 .273-.07.368.368 0 0 0 .149-.172.864.864 0 0 0 .062-.235 2.15 2.15 0 0 0 .016-.257V18c.24-.005.427-.013.563-.023a.468.468 0 0 0 .304-.118.457.457 0 0 0 .117-.297c.01-.13.016-.317.016-.562.5 0 .634.02.766-.07a.492.492 0 0 0 .156-.172.65.65 0 0 0 .07-.235c.027-.229.008-.464.008-.695.172.063.346.107.523.133.178.026.357.039.54.039a2.866 2.866 0 0 0 2.078-.898c.27-.282.481-.602.632-.961.151-.36.227-.74.227-1.141 0-.417-.078-.807-.234-1.172a3.009 3.009 0 0 0-.641-.953 3.009 3.009 0 0 0-.953-.64A2.942 2.942 0 0 0 16 10a3.23 3.23 0 0 0-1.148.234 2.91 2.91 0 0 0-.954.625 3.124 3.124 0 0 0-.656.938 2.716 2.716 0 0 0-.242 1.14c0 .245.029.503.086.774l-2.938 2.937A.48.48 0 0 0 10 17v1.5c0 .135.05.253.148.352ZM17.5 12.25c0 .412-.338.75-.75.75a.752.752 0 0 1-.75-.75c0-.412.338-.75.75-.75s.75.338.75.75Z"/></svg>
